!!!OTL: KUMM KUMM BIBELE
!!!ARE: Europa, Mitteleuropa, Deutschland; France, Elsass
!!!SCT: E1849
!!!YEM: Copyright 1995, estate of Helmut Schaffrath.
**kern
*ICvox
*Ivox
*M2/4
*k[b-]
*F:
=1
{4cc
4cc
=2
12b-
12a
12g
4f}
=3
{8f
8a
8cc
16cc
16cc
=4
8b-
8g
4f}
=5
{8f
8f
8f
8c
=6
8f
8g
4a}
=7
{4cc
4b-
=8
12b-
12a
12g
4f}
==
!!!AGN: Kinder - Lied, Tier - Lied; Tanz
!!!ONB: ESAC (Essen Associative Code) Database: ERK3
!!!AMT: simple duple
!!!AIN: vox
!!!EED: Helmut Schaffrath
!!!EEV: 1.0
*-
